X: 117
T:Mazurka
M:3/4
L:1/8
R:Mazurka
Z:Steve Mansfield
K:G
DG GF GB | DB BA Bd | cB AG FG | AG FED2 | DG GF GB | DB BA Bd |
cB AG FG |1 A2G4 :|2 A2 G2Bc |: d2de dc | BA G2 AB | c2 cd cB |
A4Bc | d2de dc | BA G2 AB | cB AG FG |1 A2G2Bc :|2 A2G4 ||
<end>
<start>
